src/symbolic/devices/bluetooth-symbolic.svg

<?xml version="1.0" encoding="UTF-8" standalone="no"?>
<svg
   xmlns:osb="http://www.openswatchbook.org/uri/2009/osb"
   xmlns:dc="http://purl.org/dc/elements/1.1/"
   xmlns:cc="http://creativecommons.org/ns#"
   xmlns:rdf="http://www.w3.org/1999/02/22-rdf-syntax-ns#"
   xmlns:svg="http://www.w3.org/2000/svg"
   xmlns="http://www.w3.org/2000/svg"
   xmlns:sodipodi="http://sodipodi.sourceforge.net/DTD/sodipodi-0.dtd"
   xmlns:inkscape="http://www.inkscape.org/namespaces/inkscape"
   width="16"
   version="1.1"
   style="enable-background:new"
   id="svg7384"
   height="16"
   sodipodi:docname="bluetooth-symbolic.svg"
   inkscape:version="0.92.4 (5da689c313, 2019-01-14)">
  <sodipodi:namedview
     pagecolor="#ffffff"
     bordercolor="#666666"
     borderopacity="1"
     objecttolerance="10"
     gridtolerance="10"
     guidetolerance="10"
     inkscape:pageopacity="0"
     inkscape:pageshadow="2"
     inkscape:window-width="1366"
     inkscape:window-height="704"
     id="namedview26"
     showgrid="false"
     inkscape:zoom="14.75"
     inkscape:cx="-1.0169492"
     inkscape:cy="8"
     inkscape:window-x="0"
     inkscape:window-y="34"
     inkscape:window-maximized="1"
     inkscape:current-layer="svg7384" />
  <metadata
     id="metadata90">
    <rdf:RDF>
      <cc:Work
         rdf:about="">
        <dc:format>image/svg+xml</dc:format>
        <dc:type
           rdf:resource="http://purl.org/dc/dcmitype/StillImage" />
        <dc:title>Moka Symbolic Icon Theme</dc:title>
      </cc:Work>
    </rdf:RDF>
  </metadata>
  <title
     id="title8473">Moka Symbolic Icon Theme</title>
  <defs
     id="defs7386">
    <linearGradient
       osb:paint="solid"
       id="linearGradient5606">
      <stop
         style="stop-color:#000000;stop-opacity:1;"
         offset="0"
         id="stop5608" />
    </linearGradient>
    <filter
       style="color-interpolation-filters:sRGB"
       id="filter7554">
      <feBlend
         mode="darken"
         in2="BackgroundImage"
         id="feBlend7556" />
    </filter>
  </defs>
  <g
     transform="translate(-261.00018,268.01999)"
     style="display:inline;filter:url(#filter7554)"
     id="layer10" />
  <g
     transform="translate(-19.999983,-348.98001)"
     style="display:inline"
     id="layer1" />
  <g
     transform="translate(-261.00018,268.01999)"
     style="display:inline"
     id="layer14" />
  <g
     transform="translate(-261.00018,268.01999)"
     style="display:inline"
     id="layer15" />
  <g
     transform="translate(-261.00018,268.01999)"
     style="display:inline"
     id="g71291" />
  <g
     transform="translate(-19.999983,-198.98001)"
     style="display:inline"
     id="layer2" />
  <g
     transform="translate(-19.999983,-198.98001)"
     style="display:inline"
     id="g6058" />
  <g
     transform="translate(-261.00018,268.01999)"
     style="display:inline"
     id="layer12" />
  <path
     inkscape:connector-curvature="0"
     d="m 8.499803,1e-6 c -3.047,0 -5.5,2.676 -5.5,6 v 4 c 0,3.324 2.453,6 5.5,6 3.047,0 5.5,-2.676 5.5,-6 v -4 c 0,-3.324 -2.453,-6 -5.5,-6 z m -0.5,2 h 0.5 c 0.20775,0 0.39305,0.13292 0.46875,0.3125 l 2.875,2.84375 0.40625,0.375 -0.4375,0.34375 -2.5625,2.125 2.5625,2.125 0.4375,0.34375 -0.40625,0.375 -2.875,2.84375 c -0.0252,0.0599 -0.0798,0.11106 -0.125,0.15625 -0.0904,0.0904 -0.20525,0.15625 -0.34375,0.15625 h -0.5 v -0.5 -4.4375 l -2.15625,1.78125 c -0.0905,0.0905 -0.20568,0.15625 -0.34375,0.15625 h -0.5 v -0.5 c 0,-0.15322 0.079,-0.28328 0.1875,-0.375 l 2.5625,-2.125 -2.4375,-2.03125 c -0.0467,-0.0197 -0.0868,-0.0615 -0.125,-0.0937 -0.10854,-0.0917 -0.1875,-0.22178 -0.1875,-0.375 v -0.5 h 0.5 c 0.12292,0 0.22543,0.0514 0.3125,0.125 0.0107,0.009 0.0213,0.0213 0.0312,0.0312 l 2.15625,1.78125 v -4.4375 -0.5 z m 1,1.6875 v 3.25 l 1.78125,-1.46875 z m 0,5.375 v 3.25 l 1.78125,-1.78125 z"
     id="rect5886"
     style="fill:#bebebe;fill-opacity:1;stroke:none" />
</svg>

<svg xmlns="http://www.w3.org/2000/svg" width="16" height="16" enable-background="new"><defs><filter id="a" color-interpolation-filters="sRGB"><feBlend mode="darken" in2="BackgroundImage"/></filter></defs><path d="M8.5 0C5.453 0 3 2.676 3 6v4c0 3.324 2.453 6 5.5 6s5.5-2.676 5.5-6V6c0-3.324-2.453-6-5.5-6zM8 2h.5c.208 0 .393.133.469.313l2.875 2.843.406.375-.438.344L9.25 8l2.562 2.125.438.344-.406.375-2.875 2.844c-.026.06-.08.11-.125.156A.484.484 0 0 1 8.5 14H8V9.063l-2.156 1.78A.485.485 0 0 1 5.5 11H5v-.5c0-.153.079-.283.187-.375L7.75 8 5.312 5.969c-.046-.02-.086-.062-.125-.094A.494.494 0 0 1 5 5.5V5h.5c.123 0 .225.051.312.125l.032.031L8 6.938V2zm1 1.688v3.25l1.781-1.47zm0 5.375v3.25l1.781-1.782z" fill="#5d656b"/></svg>
